dist/assets/images/youtube.svg

<?xml version="1.0" encoding="UTF-8"?>
<svg width="42px" height="42px" viewBox="0 0 42 42" version="1.1" xmlns="http://www.w3.org/2000/svg" xmlns:xlink="http://www.w3.org/1999/xlink">
    <!-- Generator: Sketch 52.4 (67378) - http://www.bohemiancoding.com/sketch -->
    <title>youtube-square-brands</title>
    <desc>Created with Sketch.</desc>
    <g id="Page-1" stroke="none" stroke-width="1" fill="none" fill-rule="evenodd">
        <g id="Film-Work-Page-Copy-3" transform="translate(-1060.000000, -1057.000000)" fill="#D0021B">
            <g id="youtube-square-brands" transform="translate(1060.000000, 1057.000000)">
                <g id="Shape">
                    <path d="M17.5125,15.946875 L26.4375,21.01875 L17.5125,26.090625 L17.5125,15.946875 Z M42,4.5 L42,37.5 C42,39.984375 39.984375,42 37.5,42 L4.5,42 C2.015625,42 0,39.984375 0,37.5 L0,4.5 C0,2.015625 2.015625,0 4.5,0 L37.5,0 C39.984375,0 42,2.015625 42,4.5 Z M38.0625,21.028125 C38.0625,21.028125 38.0625,15.440625 37.35,12.759375 C36.95625,11.278125 35.803125,10.115625 34.33125,9.721875 C31.678125,9 21,9 21,9 C21,9 10.321875,9 7.66875,9.721875 C6.196875,10.115625 5.04375,11.278125 4.65,12.759375 C3.9375,15.43125 3.9375,21.028125 3.9375,21.028125 C3.9375,21.028125 3.9375,26.615625 4.65,29.296875 C5.04375,30.778125 6.196875,31.89375 7.66875,32.2875 C10.321875,33 21,33 21,33 C21,33 31.678125,33 34.33125,32.278125 C35.803125,31.884375 36.95625,30.76875 37.35,29.2875 C38.0625,26.615625 38.0625,21.028125 38.0625,21.028125 Z" fill-rule="nonzero"></path>
                </g>
            </g>
        </g>
    </g>
</svg>

<svg width="42" height="42" xmlns="http://www.w3.org/2000/svg"><path d="M17.512 15.947l8.925 5.072-8.925 5.072V15.947zM42 4.5v33c0 2.484-2.016 4.5-4.5 4.5h-33A4.501 4.501 0 010 37.5v-33C0 2.016 2.016 0 4.5 0h33C39.984 0 42 2.016 42 4.5zm-3.938 16.528s0-5.587-.712-8.269a4.28 4.28 0 00-3.019-3.037C31.678 9 21 9 21 9s-10.678 0-13.331.722a4.28 4.28 0 00-3.019 3.037c-.713 2.672-.713 8.27-.713 8.27s0 5.587.713 8.268c.394 1.481 1.547 2.597 3.019 2.99C10.322 33 21 33 21 33s10.678 0 13.331-.722c1.472-.394 2.625-1.51 3.019-2.99.712-2.672.712-8.26.712-8.26z" fill="#D0021B"/></svg>
